X: 23
T: Flying Home to Shelley
C:\251 Paul Gitlitz 1988
R: reel
Z:Paul Gitlitz <paulg:pointbob.net> tradtunes 2001-04-03
B:Paul Gitlitz "Giblitz Fancy"
N:The chord extentions (6ths etc..) can be dropped for a more Appalachian feel.
D:David DiGiuseppe's album "Welcome to Heaven" ,
D:The Elftones " The Moon and Seven Stars"
D:The Stringbeings on their yet untitled album.
M:C|
L:1/8
K:G
  "G"DGdG cGBG |"Am"DGcG BGAG |"Bm"DGAG     BGAG | "C"DEGD "(D7)"EDB,C |
  "G"DGdG cGBG |"Am"DGcG BGAG |"Bm"DGAG "(Am)"BGAG |"D7"DEFD [1 "G"G2z2 :|2 "G"GABc ||
|:"G"d3B  AGAB |"Am"c3B  AGE2 | "C"e3d  "b/G"BAG2 |"Am"ABdA   "D7"BAGB  |
  "G"d2dB AGAB |"Am"c[GE]B[GE] AGE2 | "C"e3d  "(Am)"BAG2 |"D7"ABAF [1 "G"GABc :|2 "G"G4 |]

%%sep 1 1 500

